assets/images/instagram-header.svg

<svg width="25" height="25" viewBox="0 0 25 25" fill="none" xmlns="http://www.w3.org/2000/svg">
<path fill-rule="evenodd" clip-rule="evenodd" d="M12.4984 0C19.3918 0 25 5.60821 25 12.4991C25 19.3924 19.3918 25 12.4984 25C5.60758 25 0 19.3924 0 12.4991C0 5.60821 5.60758 0 12.4984 0ZM16.8599 5.39171H8.1376C6.62274 5.39171 5.39108 6.62337 5.39108 8.14012V16.8624C5.39108 18.3773 6.62274 19.6089 8.1376 19.6089H16.8599C18.3766 19.6089 19.6083 18.3773 19.6083 16.8624V8.14012C19.6083 6.62337 18.3766 5.39171 16.8599 5.39171ZM8.89791 11.0408C8.71601 11.4908 8.61279 11.9849 8.61279 12.4991C8.61279 14.6427 10.3556 16.3879 12.4994 16.3879C14.6463 16.3879 16.3891 14.6427 16.3891 12.4991C16.3891 11.9849 16.2834 11.4908 16.1015 11.0408H18.2232V16.8624C18.2232 17.6151 17.6133 18.2224 16.8612 18.2224H8.13822C7.38545 18.2224 6.77618 17.6151 6.77618 16.8624V11.0408H8.89791ZM12.4994 9.99862C13.3359 9.99862 14.0754 10.4115 14.5305 11.0408C14.8257 11.4518 15.0025 11.9553 15.0025 12.4991C15.0025 13.8805 13.879 15.0014 12.4994 15.0014C11.1203 15.0014 9.99685 13.8805 9.99685 12.4991C9.99937 11.9553 10.1737 11.4518 10.4714 11.0408C10.9259 10.409 11.666 9.99862 12.4994 9.99862ZM17.9651 7.02867V9.43786L15.5633 9.44541L15.5532 7.03623L17.6504 7.02867H17.9651Z" fill="white"/>
</svg>

<svg xmlns="http://www.w3.org/2000/svg" width="25" height="25" viewBox="0 0 25 25">
    <path fill="#FFF" fill-rule="evenodd" d="M12.498 0C19.392 0 25 5.608 25 12.5S19.392 25 12.498 25C5.608 25 0 19.392 0 12.5S5.608 0 12.498 0zm4.362 5.392H8.138A2.75 2.75 0 0 0 5.39 8.14v8.722a2.75 2.75 0 0 0 2.747 2.747h8.722a2.75 2.75 0 0 0 2.748-2.747V8.14a2.75 2.75 0 0 0-2.748-2.748zM8.898 11.04c-.182.45-.285.944-.285 1.458a3.892 3.892 0 0 0 3.886 3.889 3.893 3.893 0 0 0 3.89-3.889c0-.514-.106-1.008-.288-1.458h2.122v5.821c0 .753-.61 1.36-1.362 1.36H8.138a1.36 1.36 0 0 1-1.362-1.36v-5.821zm3.601-1.042a2.504 2.504 0 0 1 2.504 2.5 2.505 2.505 0 0 1-2.504 2.502A2.505 2.505 0 0 1 9.997 12.5a2.496 2.496 0 0 1 .474-1.458A2.494 2.494 0 0 1 12.5 9.999zm5.466-2.97v2.409l-2.402.007-.01-2.409 2.097-.007h.315z"/>
</svg>
